X: 1
T: da Greenland Mans Tune
O: trad Shetland
R: air
Z: 2014 John Chambers <jc:trillian.mit.edu>
S: PDF image from Lance Ramshaw 2017-6
M: 4/4
L: 1/16
K: A
c |\
"Bm"d3B c3A "E"BcB2 E4 | "D"F3G A3G "Bm"FD3 D3c |\
"Bm"d3B c3A "E"BcB2 E3F | "E"G3A BG3 "A"A4- A3 :|
|: A |\
"G"B3B- B2 zc "G/B"d3d- d2 zB | "D"A3A- A2 zF "D/F"D3E FA3 |\
"G"B3B- B2 zc "G/B"d3d- d2 zB | "D"A3F FD3 "Em"E4- E3 :|
